SVG_Azure_All/Azure Cosmos DB.svg

<?xml version="1.0" encoding="UTF-8" standalone="no"?>
<!DOCTYPE svg PUBLIC "-//W3C//DTD SVG 1.1//EN" "http://www.w3.org/Graphics/SVG/1.1/DTD/svg11.dtd">
<!-- Generated by Microsoft Visio, SVG Export Azure Cosmos DB.svg Page-1 -->
<svg xmlns="http://www.w3.org/2000/svg" xmlns:xlink="http://www.w3.org/1999/xlink" xmlns:ev="http://www.w3.org/2001/xml-events"
		width="1.67609in" height="1.67901in" viewBox="0 0 120.679 120.889" xml:space="preserve" color-interpolation-filters="sRGB"
		class="st4">
	<style type="text/css">
	<![CDATA[
		.st1 {fill:#50e6ff;stroke:none;stroke-linecap:butt;stroke-width:33.0148}
		.st2 {fill:url(#grad7-11);stroke:none;stroke-linecap:butt;stroke-width:0.799132}
		.st3 {fill:#f2f2f2;stroke:none;stroke-linecap:butt;stroke-width:33.0148}
		.st4 {fill:none;fill-rule:evenodd;font-size:12px;overflow:visible;stroke-linecap:square;stroke-miterlimit:3}
	]]>
	</style>

	<defs id="Patterns_And_Gradients">
		<radialGradient id="grad7-11" cx="0" cy="0" r="1.4">
			<stop offset="0.185" stop-color="#5ea0ef" stop-opacity="1"/>
			<stop offset="1" stop-color="#0078d4" stop-opacity="1"/>
		</radialGradient>
	</defs>
	<g>
		<title>Page-1</title>
		<g id="group8137-1" transform="translate(31.9894,-34.0157)">
			<title>Azure Cosmos DB</title>
			<g id="group8138-2">
				<title>layer1</title>
				<g id="shape8139-3" transform="translate(1.32222,-38.8194)">
					<title>path14</title>
					<path d="M7.59 120.89 a0.562494 0.557297 0 0 1 -0.56611 -0.560881 A6.46707 6.40733 -180 0 0 0.57 113.93 a0.565708
								 0.560482 0 0 1 -0.566113 -0.557272 a0.565708 0.560482 0 0 1 0.566113 -0.560884 A6.46707 6.40733
								 -180 0 0 7.02 106.41 a0.562494 0.557297 0 0 1 0.56611 -0.560884 a0.562494 0.557297 0 0 1 0.566114
								 0.560884 A6.46707 6.40733 -180 0 0 14.61 112.81 a0.562494 0.557297 0 0 1 0.566113 0.560884 a0.562494
								 0.557297 0 0 1 -0.566113 0.560884 A6.46385 6.40414 -180 0 0 8.16 120.33 a0.568922 0.563667 0 0 1
								 -0.566114 0.560884 L7.59 120.89 Z" class="st1"/>
				</g>
				<g id="shape8140-5" transform="translate(43.5231,-2.70006E-13)">
					<title>path16</title>
					<path d="M6.07 120.89 a0.453209 0.449023 0 0 1 -0.453134 -0.448948 A5.17173 5.12395 -180 0 0 0.45 115.32 a0.453209
								 0.449023 0 0 1 -0.453134 -0.445336 a0.453209 0.449023 0 0 1 0.453134 -0.448946 A5.16851 5.12077
								 -180 0 0 5.62 109.31 a0.453209 0.449023 0 0 1 0.453134 -0.448946 a0.453209 0.449023 0 0 1 0.453134
								 0.448946 A5.16851 5.12077 -180 0 0 11.69 114.43 a0.453209 0.449023 0 1 1 0 0.897894 A5.17173 5.12395
								 -180 0 0 6.52 120.44 a0.453209 0.449023 0 0 1 -0.453134 0.445339 Z" class="st1"/>
				</g>
				<g id="group8141-7" transform="translate(7.65415,-7.43718)">
					<title>g26</title>
					<g id="shape8142-8" transform="translate(0.88498,0)">
						<title>path1554</title>
						<ellipse cx="19.7561" cy="101.315" rx="19.7561" ry="19.5736" class="st2"/>
					</g>
					<g id="shape8143-12" transform="translate(0,-6.25559)">
						<title>path20-2-1-1</title>
						<path d="M10.42 120.7 C17.61 120.89 17.63 110.11 10.43 110.27 C10.45 110.12 10.46 109.98 10.45 109.83 C10.43
									 106.93 8.04 104.6 5.12 104.62 L1.17 104.62 C0 109.79 1.95 116.36 5.98 120.7 L10.42 120.7 Z"
								class="st3"/>
					</g>
					<g id="shape8144-14" transform="translate(21.0893,-16.4572)">
						<title>path22-2-2-2</title>
						<path d="M19.01 114.17 C19.01 114.12 19.01 114.07 18.99 114.03 A19.2148 19.0373 -180 0 0 14.47 104.86 A5.866
									 5.81182 -180 0 0 13.54 104.57 A5.80493 5.75131 -180 0 0 6.15 109.87 A6.4285 6.36911 -180 0 0
									 5.5 109.83 A5.58315 5.53158 -180 0 0 3.64 120.57 A4.66388 4.62079 -180 0 0 5.37 120.89 L11.9
									 120.89 A43.2413 42.8418 -180 0 0 19.01 114.17 Z" class="st3"/>
					</g>
				</g>
				<g id="shape8145-16" transform="translate(0,-8.26195)">
					<title>path28</title>
					<path d="M54.67 85.76 C52.65 82.43 47.92 81.13 41.32 82.11 A46.9473 46.5136 -180 0 0 34.63 83.54 A20.7512 20.5595
								 0 0 1 39.54 85.99 C40.31 85.82 41.09 85.62 41.84 85.51 A24.0747 23.8523 0 0 1 45.38 85.22 A7.03278
								 6.96781 0 0 1 51.68 87.53 C52.91 89.56 51.87 93.04 48.83 97.08 A53.7519 53.2553 0 0 1 33.57 109.98
								 A53.8644 53.3668 0 0 1 14.85 117.19 C9.82 117.93 6.22 117.19 4.99 115.16 C3.76 113.14 4.8 109.65
								 7.84 105.63 C8.22 105.13 8.31 104.88 8.74 104.38 A20.0955 19.9098 0 0 1 8.82 99.19 A37.131 36.788
								 -180 0 0 5.06 103.56 C1.08 108.83 0 113.58 2.02 116.91 A10.1731 10.0791 -180 0 0 11.34 120.89 A27.109
								 26.8586 -180 0 0 15.36 120.57 A57.3904 56.8603 -180 0 0 35.35 112.93 A57.2393 56.7106 -180 0 0 51.62
								 99.13 C55.61 93.84 56.69 89.1 54.67 85.76 L54.67 85.76 Z" class="st1"/>
				</g>
			</g>
		</g>
	</g>
</svg>

<?xml version="1.0" encoding="UTF-8" standalone="no"?>
<!-- Generated by Microsoft Visio, SVG Export Azure Cosmos DB.svg Page-1 -->

<svg
   xmlns:dc="http://purl.org/dc/elements/1.1/"
   xmlns:cc="http://creativecommons.org/ns#"
   xmlns:rdf="http://www.w3.org/1999/02/22-rdf-syntax-ns#"
   xmlns:svg="http://www.w3.org/2000/svg"
   xmlns="http://www.w3.org/2000/svg"
   xmlns:sodipodi="http://sodipodi.sourceforge.net/DTD/sodipodi-0.dtd"
   xmlns:inkscape="http://www.inkscape.org/namespaces/inkscape"
   width="0.75900877in"
   height="0.74805641in"
   viewBox="0 0 54.648867 53.860185"
   xml:space="preserve"
   class="st4"
   version="1.1"
   id="svg53"
   sodipodi:docname="Azure Cosmos DB.svg"
   style="font-size:12px;overflow:visible;color-interpolation-filters:sRGB;fill:none;fill-rule:evenodd;stroke-linecap:square;stroke-miterlimit:3"
   inkscape:version="0.92.5 (2060ec1f9f, 2020-04-08)"><metadata
   id="metadata57"><rdf:RDF><cc:Work
       rdf:about=""><dc:format>image/svg+xml</dc:format><dc:type
         rdf:resource="http://purl.org/dc/dcmitype/StillImage" /></cc:Work></rdf:RDF></metadata><sodipodi:namedview
   pagecolor="#ffffff"
   bordercolor="#666666"
   borderopacity="1"
   objecttolerance="10"
   gridtolerance="10"
   guidetolerance="10"
   inkscape:pageopacity="0"
   inkscape:pageshadow="2"
   inkscape:window-width="640"
   inkscape:window-height="480"
   id="namedview55"
   showgrid="false"
   inkscape:zoom="1.4641564"
   inkscape:cx="36.432274"
   inkscape:cy="35.239582"
   inkscape:window-x="0"
   inkscape:window-y="0"
   inkscape:window-maximized="0"
   inkscape:current-layer="svg53" />
	<style
   type="text/css"
   id="style2">
	<![CDATA[
		.st1 {fill:#50e6ff;stroke:none;stroke-linecap:butt;stroke-width:33.0148}
		.st2 {fill:url(#grad7-11);stroke:none;stroke-linecap:butt;stroke-width:0.799132}
		.st3 {fill:#f2f2f2;stroke:none;stroke-linecap:butt;stroke-width:33.0148}
		.st4 {fill:none;fill-rule:evenodd;font-size:12px;overflow:visible;stroke-linecap:square;stroke-miterlimit:3}
	]]>
	</style>

	<defs
   id="Patterns_And_Gradients">
		<radialGradient
   id="grad7-11"
   cx="0"
   cy="82.121585"
   r="55.060987"
   gradientTransform="scale(1.004651,0.99537048)"
   fx="0"
   fy="82.121585"
   gradientUnits="userSpaceOnUse">
			<stop
   offset="0.185"
   stop-color="#5ea0ef"
   stop-opacity="1"
   id="stop4" />
			<stop
   offset="1"
   stop-color="#0078d4"
   stop-opacity="1"
   id="stop6" />
		</radialGradient>
	</defs>
	<g
   id="g51"
   transform="translate(-33.015178,-33.01413)">
		<title
   id="title10">Page-1</title>
		<g
   id="group8332-1"
   transform="translate(31.9894,-34.0157)">
			<title
   id="title12">Azure Cosmos DB</title>
			<g
   id="group8333-2">
				<title
   id="title14">layer1</title>
				<g
   id="shape8334-3"
   transform="translate(1.32222,-38.8194)">
					<title
   id="title16">path14</title>
					<path
   d="M 7.59,120.89 A 0.562494,0.557297 0 0 1 7.02389,120.32912 6.46707,6.40733 -180 0 0 0.57,113.93 0.565708,0.560482 0 0 1 0.003887,113.37273 0.565708,0.560482 0 0 1 0.57,112.81184 6.46707,6.40733 -180 0 0 7.02,106.41 0.562494,0.557297 0 0 1 7.58611,105.84912 0.562494,0.557297 0 0 1 8.152224,106.41 6.46707,6.40733 -180 0 0 14.61,112.81 0.562494,0.557297 0 0 1 15.176113,113.37088 0.562494,0.557297 0 0 1 14.61,113.93177 6.46385,6.40414 -180 0 0 8.16,120.33 0.568922,0.563667 0 0 1 7.593886,120.89088 Z"
   class="st1"
   id="path18"
   inkscape:connector-curvature="0"
   style="fill:#50e6ff;stroke:none;stroke-width:33.01480103;stroke-linecap:butt" />
				</g>
				<g
   id="shape8335-5"
   transform="translate(43.5231)">
					<title
   id="title21">path16</title>
					<path
   d="M 6.07,120.89 A 0.453209,0.449023 0 0 1 5.616866,120.44105 5.17173,5.12395 -180 0 0 0.45,115.32 0.453209,0.449023 0 0 1 -0.003134,114.87466 0.453209,0.449023 0 0 1 0.45,114.42572 5.16851,5.12077 -180 0 0 5.62,109.31 0.453209,0.449023 0 0 1 6.073134,108.86105 0.453209,0.449023 0 0 1 6.526268,109.31 5.16851,5.12077 -180 0 0 11.69,114.43 a 0.453209,0.449023 0 1 1 0,0.89789 5.17173,5.12395 -180 0 0 -5.17,5.11211 0.453209,0.449023 0 0 1 -0.453134,0.44534 z"
   class="st1"
   id="path23"
   inkscape:connector-curvature="0"
   style="fill:#50e6ff;stroke:none;stroke-width:33.01480103;stroke-linecap:butt" />
				</g>
				<g
   id="group8336-7"
   transform="translate(7.65415,-7.43718)">
					<title
   id="title26">g26</title>
					<g
   id="shape8337-8"
   transform="translate(0.88498)">
						<title
   id="title28">path1554</title>
						<ellipse
   cx="19.7561"
   cy="101.315"
   rx="19.7561"
   ry="19.573601"
   class="st2"
   id="ellipse30"
   style="fill:url(#grad7-11);stroke:none;stroke-width:0.79913199;stroke-linecap:butt" />
					</g>
					<g
   id="shape8338-12"
   transform="translate(0,-6.25559)">
						<title
   id="title33">path20-2-1-1</title>
						<path
   d="m 10.42,120.7 c 7.19,0.19 7.21,-10.59 0.01,-10.43 0.02,-0.15 0.03,-0.29 0.02,-0.44 -0.02,-2.9 -2.41,-5.23 -5.33,-5.21 H 1.17 C 0,109.79 1.95,116.36 5.98,120.7 Z"
   class="st3"
   id="path35"
   inkscape:connector-curvature="0"
   style="fill:#f2f2f2;stroke:none;stroke-width:33.01480103;stroke-linecap:butt" />
					</g>
					<g
   id="shape8339-14"
   transform="translate(21.0893,-16.4572)">
						<title
   id="title38">path22-2-2-2</title>
						<path
   d="m 19.01,114.17 c 0,-0.05 0,-0.1 -0.02,-0.14 a 19.2148,19.0373 -180 0 0 -4.52,-9.17 5.866,5.81182 -180 0 0 -0.93,-0.29 5.80493,5.75131 -180 0 0 -7.39,5.3 6.4285,6.36911 -180 0 0 -0.65,-0.04 5.58315,5.53158 -180 0 0 -1.86,10.74 4.66388,4.62079 -180 0 0 1.73,0.32 h 6.53 a 43.2413,42.8418 -180 0 0 7.11,-6.72 z"
   class="st3"
   id="path40"
   inkscape:connector-curvature="0"
   style="fill:#f2f2f2;stroke:none;stroke-width:33.01480103;stroke-linecap:butt" />
					</g>
				</g>
				<g
   id="shape8340-16"
   transform="translate(0,-8.26195)">
					<title
   id="title44">path28</title>
					<path
   d="M 54.67,85.76 C 52.65,82.43 47.92,81.13 41.32,82.11 a 46.9473,46.5136 -180 0 0 -6.69,1.43 20.7512,20.5595 0 0 1 4.91,2.45 c 0.77,-0.17 1.55,-0.37 2.3,-0.48 a 24.0747,23.8523 0 0 1 3.54,-0.29 7.03278,6.96781 0 0 1 6.3,2.31 c 1.23,2.03 0.19,5.51 -2.85,9.55 a 53.7519,53.2553 0 0 1 -15.26,12.9 53.8644,53.3668 0 0 1 -18.72,7.21 c -5.03,0.74 -8.63,0 -9.86,-2.03 -1.23,-2.02 -0.19,-5.51 2.85,-9.53 0.38,-0.5 0.47,-0.75 0.9,-1.25 a 20.0955,19.9098 0 0 1 0.08,-5.19 37.131,36.788 -180 0 0 -3.76,4.37 C 1.08,108.83 0,113.58 2.02,116.91 a 10.1731,10.0791 -180 0 0 9.32,3.98 27.109,26.8586 -180 0 0 4.02,-0.32 57.3904,56.8603 -180 0 0 19.99,-7.64 57.2393,56.7106 -180 0 0 16.27,-13.8 c 3.99,-5.29 5.07,-10.03 3.05,-13.37 z"
   class="st1"
   id="path46"
   inkscape:connector-curvature="0"
   style="fill:#50e6ff;stroke:none;stroke-width:33.01480103;stroke-linecap:butt" />
				</g>
			</g>
		</g>
	</g>
</svg>
